icons/icon.svg

<svg xmlns="http://www.w3.org/2000/svg" viewBox="0 0 1733 1775" fill="none">
    <path fill="#C10007" d="m1732.05 1350-817.025 424.54V983.941l817.025-471.709V1350ZM815.025 977.517V1773.5L0 1350V507.022l815.025 470.495Zm868.495-552.736L870.59 894.127l-329.028-189.94 795.638-459.36 346.32 179.954Zm-451.59-234.65L441.556 646.455 53.28 422.313 866.025 0l365.905 190.131Z"/>
</svg>

<svg xmlns="http://www.w3.org/2000/svg" width="1733" height="1775" viewBox="0 0 1733 1775" fill="none">
<path d="M1732.05 1350L915.025 1774.54V983.941L1732.05 512.232V1350ZM815.025 977.517V1773.5L0 1350V507.022L815.025 977.517ZM1683.52 424.781L870.59 894.127L541.562 704.187L1337.2 244.827L1683.52 424.781ZM1231.93 190.131L441.556 646.455L53.2803 422.313L866.025 0L1231.93 190.131Z" fill="#C10007"/>
</svg>
